austria/municipalities/41344.svg

<?xml version="1.0" encoding="UTF-8"?>
<!DOCTYPE svg PUBLIC "-//W3C//DTD SVG 1.1//EN" "http://www.w3.org/Graphics/SVG/1.1/DTD/svg11.dtd">
<svg xmlns="http://www.w3.org/2000/svg" version="1.1" width="166px" height="207px" style="shape-rendering:geometricPrecision; text-rendering:geometricPrecision; image-rendering:optimizeQuality; fill-rule:evenodd; clip-rule:evenodd" xmlns:xlink="http://www.w3.org/1999/xlink">
<g><path style="opacity:1" fill="#000000" d="M -0.5,-0.5 C 54.8333,-0.5 110.167,-0.5 165.5,-0.5C 165.5,43.8333 165.5,88.1667 165.5,132.5C 157.936,172.065 134.603,196.731 95.5,206.5C 86.8333,206.5 78.1667,206.5 69.5,206.5C 30.0021,196.666 6.6688,171.666 -0.5,131.5C -0.5,87.5 -0.5,43.5 -0.5,-0.5 Z"/></g>
<g><path style="opacity:1" fill="#006532" d="M 3.5,3.5 C 56.1667,3.5 108.833,3.5 161.5,3.5C 161.667,47.8346 161.5,92.1679 161,136.5C 159.421,145.692 156.254,154.192 151.5,162C 149.167,162.667 146.833,162.667 144.5,162C 142.664,160.581 140.664,159.414 138.5,158.5C 136.798,134.905 142.465,113.238 155.5,93.5C 155.333,93.1667 155.167,92.8333 155,92.5C 145.986,101.865 138.986,112.531 134,124.5C 133.821,114.256 133.321,104.09 132.5,94C 135.674,92.826 137.841,90.6593 139,87.5C 139.667,65.8333 139.667,44.1667 139,22.5C 137.667,19.8333 135.667,17.8333 133,16.5C 133.266,13.0992 131.766,11.4326 128.5,11.5C 128.657,12.8734 128.49,14.2068 128,15.5C 124.731,17.1361 122.064,19.4694 120,22.5C 119.333,43.8333 119.333,65.1667 120,86.5C 120.526,90.524 122.693,93.1906 126.5,94.5C 127.665,104.149 127.832,113.816 127,123.5C 122.24,113.64 116.24,104.64 109,96.5C 110.42,102.367 112.754,108.034 116,113.5C 122.139,127.566 124.139,142.232 122,157.5C 116.663,162.168 110.496,164.002 103.5,163C 100.04,160.186 96.2068,158.02 92,156.5C 89.9268,128.792 96.2601,103.459 111,80.5C 99.9447,90.9285 91.6114,103.262 86,117.5C 85.1687,110.144 85.3354,102.811 86.5,95.5C 89.5288,93.971 91.6955,91.6377 93,88.5C 93.6667,66.1667 93.6667,43.8333 93,21.5C 91.2067,18.6923 88.7067,17.0256 85.5,16.5C 85.8493,13.5371 84.8493,11.2038 82.5,9.5C 81.0562,11.6079 80.3896,13.9412 80.5,16.5C 77.6755,16.0807 75.5088,17.0807 74,19.5C 73.3333,42.5 73.3333,65.5 74,88.5C 74.5057,91.671 76.1724,94.0043 79,95.5C 79.6667,102.167 79.6667,108.833 79,115.5C 72.5935,101.848 64.0935,89.6809 53.5,79C 52.5838,78.6258 51.7504,78.1258 51,77.5C 53.4132,82.9755 56.4132,88.3088 60,93.5C 71.1686,113.004 75.8352,134.004 74,156.5C 70.2486,158.291 66.7486,160.457 63.5,163C 54.9711,164.887 47.9711,162.554 42.5,156C 43.2445,134.933 48.5779,115.1 58.5,96.5C 48.9898,104.142 42.8231,114.475 40,127.5C 39.8206,117.256 39.3206,107.09 38.5,97C 42.3949,96.0668 44.5616,93.5668 45,89.5C 45.6667,66.5 45.6667,43.5 45,20.5C 43.6482,18.5676 41.8149,17.2343 39.5,16.5C 36.9967,7.40499 34.6634,7.40499 32.5,16.5C 30.1851,17.2343 28.3518,18.5676 27,20.5C 26.3333,43.8333 26.3333,67.1667 27,90.5C 27.7822,93.0758 29.2822,95.0758 31.5,96.5C 32.6655,106.149 32.8321,115.816 32,125.5C 26.6321,114.114 19.2988,104.114 10,95.5C 9.83333,95.8333 9.66667,96.1667 9.5,96.5C 15.1223,104.746 19.9556,113.413 24,122.5C 26.9475,131.956 28.7808,141.623 29.5,151.5C 29.3208,155.046 27.9874,158.046 25.5,160.5C 22.2464,162.029 18.913,163.362 15.5,164.5C 9.23802,155.47 5.40469,145.47 4,134.5C 3.50001,90.8346 3.33334,47.1679 3.5,3.5 Z"/></g>
<g><path style="opacity:1" fill="#fefffe" d="M -0.5,131.5 C 6.6688,171.666 30.0021,196.666 69.5,206.5C 46.1667,206.5 22.8333,206.5 -0.5,206.5C -0.5,181.5 -0.5,156.5 -0.5,131.5 Z"/></g>
<g><path style="opacity:1" fill="#fefffe" d="M 165.5,132.5 C 165.5,157.167 165.5,181.833 165.5,206.5C 142.167,206.5 118.833,206.5 95.5,206.5C 134.603,196.731 157.936,172.065 165.5,132.5 Z"/></g>
<g><path style="opacity:1" fill="#003266" d="M 77.5,164.5 C 81.8131,164.548 85.8131,165.715 89.5,168C 92.8333,168.333 96.1667,168.667 99.5,169C 97.1526,169.436 94.8193,169.936 92.5,170.5C 88.4768,169.482 84.4768,168.482 80.5,167.5C 74.6936,168.824 69.0269,170.657 63.5,173C 54.8292,173.94 46.3292,173.107 38,170.5C 32.756,170.948 27.756,172.282 23,174.5C 21.5659,174.07 20.3992,173.236 19.5,172C 24.6233,168.572 30.29,167.072 36.5,167.5C 41.9036,166.982 46.9036,168.149 51.5,171C 54.8333,171.667 58.1667,171.667 61.5,171C 66.9044,168.706 72.2377,166.54 77.5,164.5 Z"/></g>
<g><path style="opacity:1" fill="#003266" d="M 126.5,166.5 C 132.9,167.37 138.9,169.37 144.5,172.5C 144.167,173.5 143.5,174.167 142.5,174.5C 138.499,172.335 134.333,170.668 130,169.5C 125.524,170.577 121.024,171.577 116.5,172.5C 113.362,172.132 110.362,171.299 107.5,170C 114.377,171.411 120.71,170.244 126.5,166.5 Z"/></g>
<g><path style="opacity:1" fill="#003266" d="M 79.5,175.5 C 83.2198,175.564 86.8865,176.064 90.5,177C 95.0184,179.505 99.8518,181.005 105,181.5C 112.226,180.401 119.393,179.068 126.5,177.5C 130.299,177.732 133.966,178.565 137.5,180C 136,181.5 134.5,183 133,184.5C 130.517,182.509 127.684,181.509 124.5,181.5C 118.221,182.824 111.888,183.824 105.5,184.5C 93.2569,182.01 81.5902,183.51 70.5,189C 65.0788,189.839 59.7455,189.506 54.5,188C 65.5195,187.995 75.8528,185.328 85.5,180C 85.1667,179.667 84.8333,179.333 84.5,179C 75.9508,180.799 67.2842,182.299 58.5,183.5C 54.2239,183.821 50.2239,182.988 46.5,181C 52.1151,181.516 57.7818,181.516 63.5,181C 69.0266,179.387 74.3599,177.554 79.5,175.5 Z"/></g>
<g><path style="opacity:1" fill="#003266" d="M 32.5,176.5 C 33.8734,176.343 35.2068,176.51 36.5,177C 33.7513,178.123 31.2513,179.623 29,181.5C 28.3333,180.5 28.3333,179.5 29,178.5C 30.3024,177.915 31.469,177.249 32.5,176.5 Z"/></g>
<g><path style="opacity:1" fill="#003266" d="M 112.5,189.5 C 113.043,189.56 113.376,189.893 113.5,190.5C 111.426,193.078 108.76,194.578 105.5,195C 99.3292,194.959 93.1626,194.459 87,193.5C 79.9646,194.968 73.1313,197.135 66.5,200C 63.6967,200.755 61.0301,200.422 58.5,199C 66.9059,196.531 75.2392,193.865 83.5,191C 89.7603,190.937 95.927,191.77 102,193.5C 106.039,193.39 109.539,192.057 112.5,189.5 Z"/></g>
</svg>

<svg xmlns="http://www.w3.org/2000/svg" width="166" height="207" style="shape-rendering:geometricPrecision;text-rendering:geometricPrecision;image-rendering:optimizeQuality;fill-rule:evenodd;clip-rule:evenodd"><path style="opacity:1" d="M-.5-.5h166v133c-7.564 39.565-30.897 64.231-70 74h-26c-39.498-9.834-62.831-34.834-70-75V-.5z"/><path style="opacity:1" fill="#006532" d="M3.5 3.5h158c.167 44.335 0 88.668-.5 133-1.579 9.192-4.746 17.692-9.5 25.5a12.494 12.494 0 0 1-7 0 26.852 26.852 0 0 0-6-3.5c-1.702-23.595 3.965-45.262 17-65l-.5-1c-9.014 9.365-16.014 20.031-21 32a479.215 479.215 0 0 0-1.5-30.5c3.174-1.174 5.341-3.34 6.5-6.5.667-21.667.667-43.333 0-65-1.333-2.667-3.333-4.667-6-6 .266-3.4-1.234-5.067-4.5-5a8.43 8.43 0 0 1-.5 4c-3.269 1.636-5.936 3.97-8 7a1023.738 1023.738 0 0 0 0 64c.526 4.024 2.693 6.69 6.5 8a140.772 140.772 0 0 1 .5 29 116.884 116.884 0 0 0-18-27c1.42 5.867 3.754 11.534 7 17 6.139 14.066 8.139 28.732 6 44-5.337 4.668-11.504 6.502-18.5 5.5a39.214 39.214 0 0 0-11.5-6.5c-2.073-27.708 4.26-53.041 19-76-11.055 10.428-19.389 22.762-25 37a81.228 81.228 0 0 1 .5-22c3.029-1.529 5.195-3.862 6.5-7 .667-22.333.667-44.667 0-67-1.793-2.808-4.293-4.474-7.5-5 .35-2.963-.65-5.296-3-7-1.444 2.108-2.11 4.441-2 7-2.825-.42-4.991.58-6.5 3-.667 23-.667 46 0 69 .506 3.171 2.172 5.504 5 7 .667 6.667.667 13.333 0 20-6.406-13.652-14.906-25.82-25.5-36.5a9.468 9.468 0 0 1-2.5-1.5c2.413 5.475 5.413 10.809 9 16 11.169 19.504 15.835 40.504 14 63a56.398 56.398 0 0 0-10.5 6.5c-8.529 1.887-15.529-.446-21-7 .745-21.067 6.078-40.9 16-59.5-9.51 7.642-15.677 17.975-18.5 31-.18-10.244-.68-20.41-1.5-30.5 3.895-.933 6.062-3.433 6.5-7.5.667-23 .667-46 0-69-1.352-1.932-3.185-3.266-5.5-4-2.503-9.095-4.837-9.095-7 0-2.315.734-4.148 2.068-5.5 4a1225.189 1225.189 0 0 0 0 70c.782 2.576 2.282 4.576 4.5 6a140.73 140.73 0 0 1 .5 29c-5.368-11.386-12.701-21.386-22-30l-.5 1a165.584 165.584 0 0 1 14.5 26 128.49 128.49 0 0 1 5.5 29c-.18 3.546-1.513 6.546-4 9a91.656 91.656 0 0 1-10 4c-6.262-9.03-10.095-19.03-11.5-30-.5-43.665-.667-87.332-.5-131z"/><path style="opacity:1" fill="#fefffe" d="M-.5 131.5c7.169 40.166 30.502 65.166 70 75h-70v-75zM165.5 132.5v74h-70c39.103-9.769 62.436-34.435 70-74z"/><path style="opacity:1" fill="#003266" d="M77.5 164.5c4.313.048 8.313 1.215 12 3.5l10 1c-2.347.436-4.68.936-7 1.5a2154.473 2154.473 0 0 0-12-3 101.013 101.013 0 0 0-17 5.5c-8.67.94-17.17.107-25.5-2.5a44.1 44.1 0 0 0-15 4c-1.434-.43-2.6-1.264-3.5-2.5 5.123-3.428 10.79-4.928 17-4.5 5.404-.518 10.404.649 15 3.5 3.333.667 6.667.667 10 0a546.709 546.709 0 0 1 16-6.5zM126.5 166.5c6.4.87 12.4 2.87 18 6-.333 1-1 1.667-2 2a57.79 57.79 0 0 0-12.5-5 396.62 396.62 0 0 1-13.5 3 30.137 30.137 0 0 1-9-2.5c6.877 1.411 13.21.244 19-3.5zM79.5 175.5c3.72.064 7.386.564 11 1.5a36.872 36.872 0 0 0 14.5 4.5 330.245 330.245 0 0 0 21.5-4 34.665 34.665 0 0 1 11 2.5l-4.5 4.5c-2.483-1.991-5.316-2.991-8.5-3a187.825 187.825 0 0 1-19 3c-12.243-2.49-23.91-.99-35 4.5-5.421.839-10.755.506-16-1 11.02-.005 21.353-2.672 31-8l-1-1a368.9 368.9 0 0 1-26 4.5c-4.276.321-8.276-.512-12-2.5a93.538 93.538 0 0 0 17 0 175.906 175.906 0 0 0 16-5.5zM32.5 176.5a8.43 8.43 0 0 1 4 .5 28.425 28.425 0 0 0-7.5 4.5c-.667-1-.667-2 0-3a19.588 19.588 0 0 0 3.5-2zM112.5 189.5c.543.06.876.393 1 1-2.074 2.578-4.74 4.078-8 4.5a125.581 125.581 0 0 1-18.5-1.5 106.316 106.316 0 0 0-20.5 6.5c-2.803.755-5.47.422-8-1a545.11 545.11 0 0 0 25-8c6.26-.063 12.427.77 18.5 2.5 4.039-.11 7.539-1.443 10.5-4z"/></svg>
